packages/icons/src/components/Flags/assets/disabled/finland.svg

<svg width="24" height="24" viewBox="0 0 24 24" fill="none" xmlns="http://www.w3.org/2000/svg">
<g>
<path d="M12 24C18.6274 24 24 18.6274 24 12C24 5.37258 18.6274 0 12 0C5.37258 0 0 5.37258 0 12C0 18.6274 5.37258 24 12 24Z" fill="#F0F0F0"/>
<path d="M23.8984 10.4348H9.39136H9.39131V0.285278C8.28234 0.531185 7.23098 0.929763 6.26086 1.45912V10.4347V10.4348H0.101578C0.0347813 10.9472 0 11.4696 0 12C0 12.5305 0.0347813 13.0529 0.101578 13.5652H6.26081H6.26086V22.5409C7.23098 23.0702 8.28234 23.4689 9.39131 23.7148V13.5654V13.5653H23.8984C23.9651 13.0529 24 12.5305 24 12C24 11.4696 23.9651 10.9472 23.8984 10.4348V10.4348Z" fill="#444444"/>
</g>
<defs>
<clipPath id="clip0_3072_381">
<rect width="24" height="24" fill="white"/>
</clipPath>
</defs>
</svg>

<svg xmlns="http://www.w3.org/2000/svg" width="24" height="24" fill="none" viewBox="0 0 24 24">
    <path fill="#f0f0f0" d="M12 24c6.627 0 12-5.373 12-12S18.627 0 12 0 0 5.373 0 12s5.373 12 12 12"/>
    <path fill="#444" d="M23.898 10.435H9.391V.285C8.282.531 7.231.93 6.261 1.46v8.976H.1a12 12 0 0 0 0 3.13h6.16v8.976c.97.53 2.021.928 3.13 1.174v-10.15h14.507a12 12 0 0 0 0-3.13"/>
</svg>
